files/resources/svgs/general/o-eye-slash.svg

<svg width="24" height="24" viewBox="0 0 24 24" fill="none" xmlns="http://www.w3.org/2000/svg">
<path d="M3.9799 8.22257C3.05679 9.31382 2.35239 10.596 1.93433 12.0015C3.22562 16.338 7.24308 19.5 11.9991 19.5C12.9916 19.5 13.952 19.3623 14.8622 19.1049M6.2276 6.22763C7.88385 5.13558 9.86768 4.5 11.9999 4.5C16.7559 4.5 20.7734 7.66205 22.0647 11.9985C21.3528 14.3919 19.8105 16.4277 17.772 17.772M6.2276 6.22763L2.99997 3M6.2276 6.22763L9.87865 9.87868M17.772 17.772L21 21M17.772 17.772L14.1213 14.1213M14.1213 14.1213C14.6642 13.5784 15 12.8284 15 12C15 10.3431 13.6568 9 12 9C11.1715 9 10.4215 9.33579 9.87865 9.87868M14.1213 14.1213L9.87865 9.87868" stroke="#0F172A" stroke-width="1.5" stroke-linecap="round" stroke-linejoin="round"/>
</svg>

<svg xmlns="http://www.w3.org/2000/svg" fill="none" viewBox="0 0 24 24" stroke-width="1.5" stroke="currentColor" aria-hidden="true">
  <path stroke-linecap="round" stroke-linejoin="round" d="M3.98 8.223A10.477 10.477 0 001.934 12C3.226 16.338 7.244 19.5 12 19.5c.993 0 1.953-.138 2.863-.395M6.228 6.228A10.45 10.45 0 0112 4.5c4.756 0 8.773 3.162 10.065 7.498a10.523 10.523 0 01-4.293 5.774M6.228 6.228L3 3m3.228 3.228l3.65 3.65m7.894 7.894L21 21m-3.228-3.228l-3.65-3.65m0 0a3 3 0 10-4.243-4.243m4.242 4.242L9.88 9.88"/>
</svg>
